X: 22625
T: Laihian Polkka
R: polka
M: 2/4
K: Eminor
|:EG/B/ EG/B/|Bc/e/ Bc/e/|BB/A/ G/F/G/A/|GA EB/G/|
EG/B/ EG/B/|Bc/e/ Bc/e/|BB/A/ G/F/G/A/|GA E2||
|:e>d cB/c/|dD FA|dd/c/ BA|dG Bd|
e>d cB/c/|dD FA|dd/c/ BA/F/|F/A/G G2:|

